report_00007_2020-12-11T15:55:29.892Z/metrics/comparison/line/8_vs_9.svg

<svg width="640" height="500" xmlns="http://www.w3.org/2000/svg" xmlns:xlink="http://www.w3.org/1999/xlink"><path fill="#fff" d="M0 0h640v500H0z"/><defs><path id="d" stroke-width=".222" stroke="currentColor" d="M-1-1h2v2h-2z"/><path id="b" stroke-width=".222" stroke="currentColor" d="M0-1.33l-1.33 2h2.66z"/><path id="f" stroke-width=".222" stroke="currentColor" d="M0 1.33L1.265.411.782-1.067l-1.564-.009-.483 1.487z"/><use xlink:href="#b" id="c" stroke="currentColor" transform="rotate(180)"/><use xlink:href="#d" id="e" stroke="currentColor" transform="rotate(45)"/><circle id="a" stroke-width=".222" stroke="currentColor" cx="0" cy="0" r="1"/></defs><g fill="none" color="#000" stroke="currentColor"><path stroke="#000" d="M62.2 399.5h9m543.8 0h-9"/><text transform="translate(53.9 403.4)" stroke="none" fill="#000" font-family="Arial" font-size="12" text-anchor="end"><tspan>1700</tspan></text></g><g fill="none" color="#000" stroke="currentColor"><path stroke="#000" d="M62.2 346.3h9m543.8 0h-9"/><text transform="translate(53.9 350.2)" stroke="none" fill="#000" font-family="Arial" font-size="12" text-anchor="end"><tspan>1750</tspan></text></g><g fill="none" color="#000" stroke="currentColor"><path stroke="#000" d="M62.2 293.2h9m543.8 0h-9"/><text transform="translate(53.9 297.1)" stroke="none" fill="#000" font-family="Arial" font-size="12" text-anchor="end"><tspan>1800</tspan></text></g><g fill="none" color="#000" stroke="currentColor"><path stroke="#000" d="M62.2 240h9m543.8 0h-9"/><text transform="translate(53.9 243.9)" stroke="none" fill="#000" font-family="Arial" font-size="12" text-anchor="end"><tspan>1850</tspan></text></g><g fill="none" color="#000" stroke="currentColor"><path stroke="#000" d="M62.2 186.9h9m543.8 0h-9"/><text transform="translate(53.9 190.8)" stroke="none" fill="#000" font-family="Arial" font-size="12" text-anchor="end"><tspan>1900</tspan></text></g><g fill="none" color="#000" stroke="currentColor"><path stroke="#000" d="M62.2 133.7h9m543.8 0h-9"/><text transform="translate(53.9 137.6)" stroke="none" fill="#000" font-family="Arial" font-size="12" text-anchor="end"><tspan>1950</tspan></text></g><g fill="none" color="#000" stroke="currentColor"><path stroke="#000" d="M62.2 80.5h9m543.8 0h-9"/><text transform="translate(53.9 84.4)" stroke="none" fill="#000" font-family="Arial" font-size="12" text-anchor="end"><tspan>2000</tspan></text></g><g fill="none" color="#000" stroke="currentColor"><path stroke="#000" d="M62.2 27.4h9m543.8 0h-9"/><text transform="translate(53.9 31.3)" stroke="none" fill="#000" font-family="Arial" font-size="12" text-anchor="end"><tspan>2050</tspan></text></g><g fill="none" color="#000" stroke="currentColor"><path stroke="#000" d="M62.2 446v-9m0-418.9v9"/><text transform="translate(62.2 467.9)" stroke="none" fill="#000" font-family="Arial" font-size="12" text-anchor="middle"><tspan>0</tspan></text></g><g fill="none" color="#000" stroke="currentColor"><path stroke="#000" d="M118 446v-9m0-418.9v9"/><text transform="translate(118 467.9)" stroke="none" fill="#000" font-family="Arial" font-size="12" text-anchor="middle"><tspan>10</tspan></text></g><g fill="none" color="#000" stroke="currentColor"><path stroke="#000" d="M173.9 446v-9m0-418.9v9"/><text transform="translate(173.9 467.9)" stroke="none" fill="#000" font-family="Arial" font-size="12" text-anchor="middle"><tspan>20</tspan></text></g><g fill="none" color="#000" stroke="currentColor"><path stroke="#000" d="M229.7 446v-9m0-418.9v9"/><text transform="translate(229.7 467.9)" stroke="none" fill="#000" font-family="Arial" font-size="12" text-anchor="middle"><tspan>30</tspan></text></g><g fill="none" color="#000" stroke="currentColor"><path stroke="#000" d="M285.6 446v-9m0-418.9v9"/><text transform="translate(285.6 467.9)" stroke="none" fill="#000" font-family="Arial" font-size="12" text-anchor="middle"><tspan>40</tspan></text></g><g fill="none" color="#000" stroke="currentColor"><path stroke="#000" d="M341.4 446v-9m0-418.9v9"/><text transform="translate(341.4 467.9)" stroke="none" fill="#000" font-family="Arial" font-size="12" text-anchor="middle"><tspan>50</tspan></text></g><g fill="none" color="#000" stroke="currentColor"><path stroke="#000" d="M397.2 446v-9m0-418.9v9"/><text transform="translate(397.2 467.9)" stroke="none" fill="#000" font-family="Arial" font-size="12" text-anchor="middle"><tspan>60</tspan></text></g><g fill="none" color="#000" stroke="currentColor"><path stroke="#000" d="M453.1 446v-9m0-418.9v9"/><text transform="translate(453.1 467.9)" stroke="none" fill="#000" font-family="Arial" font-size="12" text-anchor="middle"><tspan>70</tspan></text></g><g fill="none" color="#000" stroke="currentColor"><path stroke="#000" d="M508.9 446v-9m0-418.9v9"/><text transform="translate(508.9 467.9)" stroke="none" fill="#000" font-family="Arial" font-size="12" text-anchor="middle"><tspan>80</tspan></text></g><g fill="none" color="#000" stroke="currentColor"><path stroke="#000" d="M564.7 446v-9m0-418.9v9"/><text transform="translate(564.7 467.9)" stroke="none" fill="#000" font-family="Arial" font-size="12" text-anchor="middle"><tspan>90</tspan></text></g><path stroke="#000" d="M62.2 18.1V446H615V18.1H62.2z" fill="none" color="#000"/><text transform="translate(279.8 485.9)" stroke="none" fill="#000" font-family="Arial" font-size="12" text-anchor="end" color="#000"><tspan>pages+cached+noexternal+noimg</tspan></text><path stroke="#9400D3" d="M288.1 482h42.2M62.2 274l5.6 1.1 5.6-2.1 5.6 1 5.5-240.2 5.6-2.2 5.6-2.1 5.6 246.7 5.6-244.6H118l5.6 242.4 5.6-165.8 5.6-76.6 5.6 241.4L146 29.5l5.5 1.1 5.6 79.7 5.6-79.7h5.6l5.6 243.4 5.6-245.5 5.5 246.6 5.6-244.5 5.6 245.6 5.6-245.6 5.6 79.7 5.6-75.5 5.5-5.3 5.6 3.2 5.6 1.1 5.6-7.5 5.6 250.9 5.6-169 5.6-71.2 5.5 236 5.6-245.6 5.6 85 5.6-80.8 5.6-2.1 5.6 244.5 5.5-3.1 5.6 2.1 5.6-240.3 5.6 80.8 5.6 160.5 5.6-161.6 5.5-80.8h5.6l5.6 241.4 5.6-238.2 5.6 240.3 5.6-164.8 5.5-81.8 5.6 248.7 5.6-245.6 5.6 2.2 5.6-3.2 5.6 244.5 5.5-163.7 5.6-79.8 5.6-2.1 5.6 246.7 5.6-2.2 5.6-244.5 5.5 245.6 5.6-160.5 5.6-80.8 5.6 240.2 5.6-245.5 5.6 82.9 5.6-77.6 5.5 242.4 5.6-2.2 5.6-241.3 5.6 244.5 5.6-241.3 5.6-5.3 5.5 78.7 5.6 166.9 5.6-165.9 5.6-79.7 5.6 243.4 5.6-161.6 5.5 162.7 5.6 2.1 5.6-248.7 5.6 3.1 5.6 241.4 5.6 1 5.5-240.2 5.6-2.2 5.6 241.4 5.6-243.5 5.6 1.1 5.6-1.1 5.5 245.6 5.6-244.5 5.6 85 5.6-84" fill="none" color="#000"/><text transform="translate(579.3 485.9)" stroke="none" fill="#000" font-family="Arial" font-size="12" text-anchor="end" color="#000"><tspan>pages+cached+noexternal+nocss</tspan></text><path stroke="#009E73" d="M587.6 482h42.2M62.2 433.5l5.6 1.1 5.6-1.1 5.6 2.1 5.5-4.2 5.6 1.1 5.6 2.1 5.6 2.1 5.6-3.2h5.6l5.5-1 5.6 1 5.6-1 5.6 1 5.6-1 5.6 1h5.5l5.6 1.1 5.6-1.1 5.6-4.2 5.6 2.1 5.6 3.2 5.5-3.2 5.6 1.1 5.6 3.1h5.6l5.6-3.1 5.6-4.3 5.5 6.4 5.6-2.1 5.6-1.1 5.6 1.1 5.6 1h5.6l5.6-1 5.5-4.3 5.6 5.3h5.6l5.6-1 5.6 4.2h5.6l5.5-3.2 5.6 4.3 5.6-4.3 5.6 1.1 5.6 1h5.6l5.5-1 5.6-5.3 5.6 6.3 5.6-1 5.6-1.1h5.6l5.5-1 5.6-1.1h5.6l5.6 5.3 5.6-3.2 5.6 1.1h5.5l5.6 1 5.6-1 5.6 1 5.6-3.1h5.6l5.5 1 5.6-3.2 5.6 2.2h11.2l5.6 5.3 5.6-5.3 5.5 1 5.6-1h5.6l5.6 1 5.6-2.1h5.6l5.5 1.1h5.6l5.6 3.1 5.6-4.2 5.6 2.1 5.6-1 5.5 1 5.6 3.2 5.6-4.2 5.6 1 5.6-2.1 5.6 4.2 5.5-1 5.6-1.1h5.6l5.6 2.1 5.6-1 5.6-1.1 5.5-1H615" fill="none" color="#000"/><g fill="none" color="#000" stroke="currentColor"><path stroke="#000" d="M62.2 18.1V446H615V18.1H62.2z"/></g></svg>

<?xml version="1.0" encoding="utf-8"  standalone="no"?>
<svg 
 width="640" height="500"
 viewBox="0 0 640 500"
 xmlns="http://www.w3.org/2000/svg"
 xmlns:xlink="http://www.w3.org/1999/xlink"
>

<title>Gnuplot</title>
<desc>Produced by GNUPLOT 5.4 patchlevel 0 </desc>

<g id="gnuplot_canvas">

<rect x="0" y="0" width="640" height="500" fill="#ffffff"/>
<defs>

	<circle id='gpDot' r='0.5' stroke-width='0.5' stroke='currentColor'/>
	<path id='gpPt0' stroke-width='0.222' stroke='currentColor' d='M-1,0 h2 M0,-1 v2'/>
	<path id='gpPt1' stroke-width='0.222' stroke='currentColor' d='M-1,-1 L1,1 M1,-1 L-1,1'/>
	<path id='gpPt2' stroke-width='0.222' stroke='currentColor' d='M-1,0 L1,0 M0,-1 L0,1 M-1,-1 L1,1 M-1,1 L1,-1'/>
	<rect id='gpPt3' stroke-width='0.222' stroke='currentColor' x='-1' y='-1' width='2' height='2'/>
	<rect id='gpPt4' stroke-width='0.222' stroke='currentColor' fill='currentColor' x='-1' y='-1' width='2' height='2'/>
	<circle id='gpPt5' stroke-width='0.222' stroke='currentColor' cx='0' cy='0' r='1'/>
	<use xlink:href='#gpPt5' id='gpPt6' fill='currentColor' stroke='none'/>
	<path id='gpPt7' stroke-width='0.222' stroke='currentColor' d='M0,-1.33 L-1.33,0.67 L1.33,0.67 z'/>
	<use xlink:href='#gpPt7' id='gpPt8' fill='currentColor' stroke='none'/>
	<use xlink:href='#gpPt7' id='gpPt9' stroke='currentColor' transform='rotate(180)'/>
	<use xlink:href='#gpPt9' id='gpPt10' fill='currentColor' stroke='none'/>
	<use xlink:href='#gpPt3' id='gpPt11' stroke='currentColor' transform='rotate(45)'/>
	<use xlink:href='#gpPt11' id='gpPt12' fill='currentColor' stroke='none'/>
	<path id='gpPt13' stroke-width='0.222' stroke='currentColor' d='M0,1.330 L1.265,0.411 L0.782,-1.067 L-0.782,-1.076 L-1.265,0.411 z'/>
	<use xlink:href='#gpPt13' id='gpPt14' fill='currentColor' stroke='none'/>
	<filter id='textbox' filterUnits='objectBoundingBox' x='0' y='0' height='1' width='1'>
	  <feFlood flood-color='#FFFFFF' flood-opacity='1' result='bgnd'/>
	  <feComposite in='SourceGraphic' in2='bgnd' operator='atop'/>
	</filter>
	<filter id='greybox' filterUnits='objectBoundingBox' x='0' y='0' height='1' width='1'>
	  <feFlood flood-color='lightgrey' flood-opacity='1' result='grey'/>
	  <feComposite in='SourceGraphic' in2='grey' operator='atop'/>
	</filter>
</defs>
<g fill="none" color="#FFFFFF" stroke="black" stroke-width="1.00" stroke-linecap="butt" stroke-linejoin="miter">
</g>
<g fill="none" color="black" stroke="currentColor" stroke-width="1.00" stroke-linecap="butt" stroke-linejoin="miter">
	<path stroke='black'  d='M62.2,399.5 L71.2,399.5 M615.0,399.5 L606.0,399.5  '/>	<g transform="translate(53.9,403.4)" stroke="none" fill="black" font-family="Arial" font-size="12.00"  text-anchor="end">
		<text><tspan font-family="Arial" > 1700</tspan></text>
	</g>
</g>
<g fill="none" color="black" stroke="currentColor" stroke-width="1.00" stroke-linecap="butt" stroke-linejoin="miter">
	<path stroke='black'  d='M62.2,346.3 L71.2,346.3 M615.0,346.3 L606.0,346.3  '/>	<g transform="translate(53.9,350.2)" stroke="none" fill="black" font-family="Arial" font-size="12.00"  text-anchor="end">
		<text><tspan font-family="Arial" > 1750</tspan></text>
	</g>
</g>
<g fill="none" color="black" stroke="currentColor" stroke-width="1.00" stroke-linecap="butt" stroke-linejoin="miter">
	<path stroke='black'  d='M62.2,293.2 L71.2,293.2 M615.0,293.2 L606.0,293.2  '/>	<g transform="translate(53.9,297.1)" stroke="none" fill="black" font-family="Arial" font-size="12.00"  text-anchor="end">
		<text><tspan font-family="Arial" > 1800</tspan></text>
	</g>
</g>
<g fill="none" color="black" stroke="currentColor" stroke-width="1.00" stroke-linecap="butt" stroke-linejoin="miter">
	<path stroke='black'  d='M62.2,240.0 L71.2,240.0 M615.0,240.0 L606.0,240.0  '/>	<g transform="translate(53.9,243.9)" stroke="none" fill="black" font-family="Arial" font-size="12.00"  text-anchor="end">
		<text><tspan font-family="Arial" > 1850</tspan></text>
	</g>
</g>
<g fill="none" color="black" stroke="currentColor" stroke-width="1.00" stroke-linecap="butt" stroke-linejoin="miter">
	<path stroke='black'  d='M62.2,186.9 L71.2,186.9 M615.0,186.9 L606.0,186.9  '/>	<g transform="translate(53.9,190.8)" stroke="none" fill="black" font-family="Arial" font-size="12.00"  text-anchor="end">
		<text><tspan font-family="Arial" > 1900</tspan></text>
	</g>
</g>
<g fill="none" color="black" stroke="currentColor" stroke-width="1.00" stroke-linecap="butt" stroke-linejoin="miter">
	<path stroke='black'  d='M62.2,133.7 L71.2,133.7 M615.0,133.7 L606.0,133.7  '/>	<g transform="translate(53.9,137.6)" stroke="none" fill="black" font-family="Arial" font-size="12.00"  text-anchor="end">
		<text><tspan font-family="Arial" > 1950</tspan></text>
	</g>
</g>
<g fill="none" color="black" stroke="currentColor" stroke-width="1.00" stroke-linecap="butt" stroke-linejoin="miter">
	<path stroke='black'  d='M62.2,80.5 L71.2,80.5 M615.0,80.5 L606.0,80.5  '/>	<g transform="translate(53.9,84.4)" stroke="none" fill="black" font-family="Arial" font-size="12.00"  text-anchor="end">
		<text><tspan font-family="Arial" > 2000</tspan></text>
	</g>
</g>
<g fill="none" color="black" stroke="currentColor" stroke-width="1.00" stroke-linecap="butt" stroke-linejoin="miter">
	<path stroke='black'  d='M62.2,27.4 L71.2,27.4 M615.0,27.4 L606.0,27.4  '/>	<g transform="translate(53.9,31.3)" stroke="none" fill="black" font-family="Arial" font-size="12.00"  text-anchor="end">
		<text><tspan font-family="Arial" > 2050</tspan></text>
	</g>
</g>
<g fill="none" color="black" stroke="currentColor" stroke-width="1.00" stroke-linecap="butt" stroke-linejoin="miter">
	<path stroke='black'  d='M62.2,446.0 L62.2,437.0 M62.2,18.1 L62.2,27.1  '/>	<g transform="translate(62.2,467.9)" stroke="none" fill="black" font-family="Arial" font-size="12.00"  text-anchor="middle">
		<text><tspan font-family="Arial" > 0</tspan></text>
	</g>
</g>
<g fill="none" color="black" stroke="currentColor" stroke-width="1.00" stroke-linecap="butt" stroke-linejoin="miter">
	<path stroke='black'  d='M118.0,446.0 L118.0,437.0 M118.0,18.1 L118.0,27.1  '/>	<g transform="translate(118.0,467.9)" stroke="none" fill="black" font-family="Arial" font-size="12.00"  text-anchor="middle">
		<text><tspan font-family="Arial" > 10</tspan></text>
	</g>
</g>
<g fill="none" color="black" stroke="currentColor" stroke-width="1.00" stroke-linecap="butt" stroke-linejoin="miter">
	<path stroke='black'  d='M173.9,446.0 L173.9,437.0 M173.9,18.1 L173.9,27.1  '/>	<g transform="translate(173.9,467.9)" stroke="none" fill="black" font-family="Arial" font-size="12.00"  text-anchor="middle">
		<text><tspan font-family="Arial" > 20</tspan></text>
	</g>
</g>
<g fill="none" color="black" stroke="currentColor" stroke-width="1.00" stroke-linecap="butt" stroke-linejoin="miter">
	<path stroke='black'  d='M229.7,446.0 L229.7,437.0 M229.7,18.1 L229.7,27.1  '/>	<g transform="translate(229.7,467.9)" stroke="none" fill="black" font-family="Arial" font-size="12.00"  text-anchor="middle">
		<text><tspan font-family="Arial" > 30</tspan></text>
	</g>
</g>
<g fill="none" color="black" stroke="currentColor" stroke-width="1.00" stroke-linecap="butt" stroke-linejoin="miter">
	<path stroke='black'  d='M285.6,446.0 L285.6,437.0 M285.6,18.1 L285.6,27.1  '/>	<g transform="translate(285.6,467.9)" stroke="none" fill="black" font-family="Arial" font-size="12.00"  text-anchor="middle">
		<text><tspan font-family="Arial" > 40</tspan></text>
	</g>
</g>
<g fill="none" color="black" stroke="currentColor" stroke-width="1.00" stroke-linecap="butt" stroke-linejoin="miter">
	<path stroke='black'  d='M341.4,446.0 L341.4,437.0 M341.4,18.1 L341.4,27.1  '/>	<g transform="translate(341.4,467.9)" stroke="none" fill="black" font-family="Arial" font-size="12.00"  text-anchor="middle">
		<text><tspan font-family="Arial" > 50</tspan></text>
	</g>
</g>
<g fill="none" color="black" stroke="currentColor" stroke-width="1.00" stroke-linecap="butt" stroke-linejoin="miter">
	<path stroke='black'  d='M397.2,446.0 L397.2,437.0 M397.2,18.1 L397.2,27.1  '/>	<g transform="translate(397.2,467.9)" stroke="none" fill="black" font-family="Arial" font-size="12.00"  text-anchor="middle">
		<text><tspan font-family="Arial" > 60</tspan></text>
	</g>
</g>
<g fill="none" color="black" stroke="currentColor" stroke-width="1.00" stroke-linecap="butt" stroke-linejoin="miter">
	<path stroke='black'  d='M453.1,446.0 L453.1,437.0 M453.1,18.1 L453.1,27.1  '/>	<g transform="translate(453.1,467.9)" stroke="none" fill="black" font-family="Arial" font-size="12.00"  text-anchor="middle">
		<text><tspan font-family="Arial" > 70</tspan></text>
	</g>
</g>
<g fill="none" color="black" stroke="currentColor" stroke-width="1.00" stroke-linecap="butt" stroke-linejoin="miter">
	<path stroke='black'  d='M508.9,446.0 L508.9,437.0 M508.9,18.1 L508.9,27.1  '/>	<g transform="translate(508.9,467.9)" stroke="none" fill="black" font-family="Arial" font-size="12.00"  text-anchor="middle">
		<text><tspan font-family="Arial" > 80</tspan></text>
	</g>
</g>
<g fill="none" color="black" stroke="currentColor" stroke-width="1.00" stroke-linecap="butt" stroke-linejoin="miter">
	<path stroke='black'  d='M564.7,446.0 L564.7,437.0 M564.7,18.1 L564.7,27.1  '/>	<g transform="translate(564.7,467.9)" stroke="none" fill="black" font-family="Arial" font-size="12.00"  text-anchor="middle">
		<text><tspan font-family="Arial" > 90</tspan></text>
	</g>
</g>
<g fill="none" color="black" stroke="currentColor" stroke-width="1.00" stroke-linecap="butt" stroke-linejoin="miter">
</g>
<g fill="none" color="black" stroke="currentColor" stroke-width="1.00" stroke-linecap="butt" stroke-linejoin="miter">
	<path stroke='black'  d='M62.2,18.1 L62.2,446.0 L615.0,446.0 L615.0,18.1 L62.2,18.1 Z  '/></g>
<g fill="none" color="black" stroke="currentColor" stroke-width="1.00" stroke-linecap="butt" stroke-linejoin="miter">
</g>
	<g id="gnuplot_plot_1" ><title>pages+cached+noexternal+noimg</title>
<g fill="none" color="black" stroke="currentColor" stroke-width="1.00" stroke-linecap="butt" stroke-linejoin="miter">
	<g transform="translate(279.8,485.9)" stroke="none" fill="black" font-family="Arial" font-size="12.00"  text-anchor="end">
		<text><tspan font-family="Arial" >pages+cached+noexternal+noimg</tspan></text>
	</g>
</g>
<g fill="none" color="black" stroke="currentColor" stroke-width="1.00" stroke-linecap="butt" stroke-linejoin="miter">
	<path stroke='rgb(148,   0, 211)'  d='M288.1,482.0 L330.3,482.0 M62.2,274.0 L67.8,275.1 L73.4,273.0 L79.0,274.0 L84.5,33.8 L90.1,31.6
		L95.7,29.5 L101.3,276.2 L106.9,31.6 L112.5,31.6 L118.0,31.6 L123.6,274.0 L129.2,108.2 L134.8,31.6
		L140.4,273.0 L146.0,29.5 L151.5,30.6 L157.1,110.3 L162.7,30.6 L168.3,30.6 L173.9,274.0 L179.5,28.5
		L185.0,275.1 L190.6,30.6 L196.2,276.2 L201.8,30.6 L207.4,110.3 L213.0,34.8 L218.5,29.5 L224.1,32.7
		L229.7,33.8 L235.3,26.3 L240.9,277.2 L246.5,108.2 L252.1,37.0 L257.6,273.0 L263.2,27.4 L268.8,112.4
		L274.4,31.6 L280.0,29.5 L285.6,274.0 L291.1,270.9 L296.7,273.0 L302.3,32.7 L307.9,113.5 L313.5,274.0
		L319.1,112.4 L324.6,31.6 L330.2,31.6 L335.8,273.0 L341.4,34.8 L347.0,275.1 L352.6,110.3 L358.1,28.5
		L363.7,277.2 L369.3,31.6 L374.9,33.8 L380.5,30.6 L386.1,275.1 L391.6,111.4 L397.2,31.6 L402.8,29.5
		L408.4,276.2 L414.0,274.0 L419.6,29.5 L425.1,275.1 L430.7,114.6 L436.3,33.8 L441.9,274.0 L447.5,28.5
		L453.1,111.4 L458.7,33.8 L464.2,276.2 L469.8,274.0 L475.4,32.7 L481.0,277.2 L486.6,35.9 L492.2,30.6
		L497.7,109.3 L503.3,276.2 L508.9,110.3 L514.5,30.6 L520.1,274.0 L525.7,112.4 L531.2,275.1 L536.8,277.2
		L542.4,28.5 L548.0,31.6 L553.6,273.0 L559.2,274.0 L564.7,33.8 L570.3,31.6 L575.9,273.0 L581.5,29.5
		L587.1,30.6 L592.7,29.5 L598.2,275.1 L603.8,30.6 L609.4,115.6 L615.0,31.6  '/></g>
	</g>
	<g id="gnuplot_plot_2" ><title>pages+cached+noexternal+nocss</title>
<g fill="none" color="black" stroke="currentColor" stroke-width="1.00" stroke-linecap="butt" stroke-linejoin="miter">
	<g transform="translate(579.3,485.9)" stroke="none" fill="black" font-family="Arial" font-size="12.00"  text-anchor="end">
		<text><tspan font-family="Arial" >pages+cached+noexternal+nocss</tspan></text>
	</g>
</g>
<g fill="none" color="black" stroke="currentColor" stroke-width="1.00" stroke-linecap="butt" stroke-linejoin="miter">
	<path stroke='rgb(  0, 158, 115)'  d='M587.6,482.0 L629.8,482.0 M62.2,433.5 L67.8,434.6 L73.4,433.5 L79.0,435.6 L84.5,431.4 L90.1,432.5
		L95.7,434.6 L101.3,436.7 L106.9,433.5 L112.5,433.5 L118.0,432.5 L123.6,433.5 L129.2,432.5 L134.8,433.5
		L140.4,432.5 L146.0,433.5 L151.5,433.5 L157.1,434.6 L162.7,433.5 L168.3,429.3 L173.9,431.4 L179.5,434.6
		L185.0,431.4 L190.6,432.5 L196.2,435.6 L201.8,435.6 L207.4,432.5 L213.0,428.2 L218.5,434.6 L224.1,432.5
		L229.7,431.4 L235.3,432.5 L240.9,433.5 L246.5,433.5 L252.1,432.5 L257.6,428.2 L263.2,433.5 L268.8,433.5
		L274.4,432.5 L280.0,436.7 L285.6,436.7 L291.1,433.5 L296.7,437.8 L302.3,433.5 L307.9,434.6 L313.5,435.6
		L319.1,435.6 L324.6,434.6 L330.2,429.3 L335.8,435.6 L341.4,434.6 L347.0,433.5 L352.6,433.5 L358.1,432.5
		L363.7,431.4 L369.3,431.4 L374.9,436.7 L380.5,433.5 L386.1,434.6 L391.6,434.6 L397.2,435.6 L402.8,434.6
		L408.4,435.6 L414.0,432.5 L419.6,432.5 L425.1,433.5 L430.7,430.3 L436.3,432.5 L441.9,432.5 L447.5,432.5
		L453.1,437.8 L458.7,432.5 L464.2,433.5 L469.8,432.5 L475.4,432.5 L481.0,433.5 L486.6,431.4 L492.2,431.4
		L497.7,432.5 L503.3,432.5 L508.9,435.6 L514.5,431.4 L520.1,433.5 L525.7,432.5 L531.2,433.5 L536.8,436.7
		L542.4,432.5 L548.0,433.5 L553.6,431.4 L559.2,435.6 L564.7,434.6 L570.3,433.5 L575.9,433.5 L581.5,435.6
		L587.1,434.6 L592.7,433.5 L598.2,432.5 L603.8,432.5 L609.4,432.5 L615.0,432.5  '/></g>
	</g>
<g fill="none" color="#FFFFFF" stroke="rgb(  0, 158, 115)" stroke-width="2.00" stroke-linecap="butt" stroke-linejoin="miter">
</g>
<g fill="none" color="black" stroke="currentColor" stroke-width="2.00" stroke-linecap="butt" stroke-linejoin="miter">
</g>
<g fill="none" color="black" stroke="black" stroke-width="1.00" stroke-linecap="butt" stroke-linejoin="miter">
</g>
<g fill="none" color="black" stroke="currentColor" stroke-width="1.00" stroke-linecap="butt" stroke-linejoin="miter">
	<path stroke='black'  d='M62.2,18.1 L62.2,446.0 L615.0,446.0 L615.0,18.1 L62.2,18.1 Z  '/></g>
<g fill="none" color="black" stroke="currentColor" stroke-width="1.00" stroke-linecap="butt" stroke-linejoin="miter">
</g>
</g>
</svg>
